X:1
T:Title
%%score { 1 | 2 }
L:1/8
M:4/4
K:Bb
V:1 treble nm="Grand Piano"
V:2 bass 
V:1
 z4 z2[Q:1/4=100] [B,D][CE] | [DF]2 [DB]2 [EB][EA][EG][EA] | [DB]2 [DF]2 z2 [DB][Ec] | %3
 [Fd]2 [Fd]2 [Fd][Fc][FB][Fd] | c6 dc | c2 B2 z2 [FB][FA] |[M:3/4] [FA]2 [EG]2 z2 |[M:1/4] [GB]G | %8
[M:4/4] F2 B>c BAGA |[M:3/4] [DB]6 |[M:1/4] AB |[M:4/4] c2 c2 c2 [FB][Fc] | %12
 [Fd]2 [Fd]2 [Fd]2 [CFf][CFe] | [Fd]2 [FB]2 [=EB][EB][EA][EB] | c6 dc | c2 B2 z2 [FB][FA] | %16
 [FA]2 [EG]2 z2 [GB]G | F2 B>c BAGA |[M:3/4] [DB]6 |] %19
V:2
 z4 z2 [B,,F,][B,,F,] | [B,,F,]2 [B,,F,]2 [C,F,][C,F,][F,,F,][F,,F,] | %2
 [B,,F,]2 [B,,B,]2 z2 [B,,B,][B,,B,] | [B,,B,]2 [B,,B,]2 [B,,B,][C,A,][D,B,][B,,B,] | %4
 [F,A,F]6 [F,A,F][F,A,E] | [G,B,D]2 [G,B,D]2 z2 [D,B,][D,B,] |[M:3/4] [E,B,]2 [E,B,]2 z2 | %7
[M:1/4] [E,B,][E,B,E] |[M:4/4] [F,B,D]2 [F,B,D]2 [F,CE][F,CE][F,CE][F,CE] |[M:3/4] [B,,B,]6 | %10
[M:1/4] [F,CE][F,B,D] |[M:4/4] [F,A,F]2 [F,A,F]2 [F,A,F]2 [D,B,][C,A,] | %12
 [B,,B,]2 [B,,B,]2 [B,,B,]2 [A,,A,][A,,A,] | [B,,B,]2 [D,B,]2 [G,C][G,C][C,C][C,B,] | %14
 [F,A,F]6 [F,A,F][^F,A,E] | [G,B,D]2 [G,B,D]2 z2 [D,B,][D,B,] | [E,B,]2 [E,B,]2 z2 [E,B,][E,B,E] | %17
 [F,B,D]2 [F,B,D]2 [F,CE][F,CE][F,CE][F,CE] |[M:3/4] [B,,B,]6 |] %19

